X: 10913
T: MRS. GARDEN OF TROUP -- Strathspey
R: strathspey
B: K\"ohler's Violin Repository, v.1, 1885 p.91 #3
F: http://www.archive.org/details/klersviolinrepos01edin
Z: 2012 John Chambers <jc:trillian.mit.edu>
M: C|
L: 1/16
K: F
uC2 !segno!|\
(.F3.G)(F2d2) cF3d3F | E2(C2"^>"C3F) (EF)GE (C3E) |\
(.F3.G)(F2d2) cF3A3f |[1 (.c3.f) (ag).f.e f4f2 :|[2 (.c3.f) (ef)ge f4f2 ||
uc2 |\
(.f3.c)(.a3.c) (.b3.c)(.a3.c) | (.A3.f) (ba)gf e(g3"_>"g3a) |\
(.f3.c) (.a3.c) (.b3.c)(.a3.c) | (ba)gf (ef)ge f4f2 ||
u((3cde) |\
(.f3.c)(.a3.c) (.b3.c)(.a3.c) | (.A3.f) (ba)gf e2(g2"^>"g2 fe) |\
(.d3.B)(d2f2) (.c3.A)(c2f2) | (.A3.f) (ag)fe "_Segue Reel."f4(fa3) !segno!|]

%%sep 2 1 500

